src/assets/wallet.svg

<svg width="24" height="24" viewBox="0 0 24 24" fill="none" xmlns="http://www.w3.org/2000/svg">
<path d="M22.5 10.2857V8.14286C22.5 7.35384 21.8284 6.71429 21 6.71429H4.5C3.67275 6.71429 3 6.07357 3 5.28571C3 4.49786 3.67275 3.85714 4.5 3.85714H21C21.8284 3.85714 22.5 3.2175 22.5 2.42857C22.5 1.63964 21.8284 1 21 1H4.5C2.01853 1 0 2.92246 0 5.28571V6.71429V18.1429C0 19.7208 1.34325 21 3 21H21C21.8284 21 22.5 20.3604 22.5 19.5714V17.4286C23.3284 17.4286 24 16.789 24 16V11.7143C24 10.9253 23.3284 10.2857 22.5 10.2857ZM20.25 15.2857C19.4216 15.2857 18.75 14.6462 18.75 13.8571C18.75 13.0681 19.4216 12.4286 20.25 12.4286C21.0784 12.4286 21.75 13.0681 21.75 13.8571C21.75 14.6462 21.0784 15.2857 20.25 15.2857Z" fill="url(#paint0_linear)"/>
<defs>
<linearGradient id="paint0_linear" x1="37.125" y1="-8" x2="4.31334" y2="21.826" gradientUnits="userSpaceOnUse">
<stop stop-color="#FFB36D"/>
<stop offset="1" stop-color="#FF8888"/>
</linearGradient>
</defs>
</svg>

<svg width="24" height="24" fill="none" xmlns="http://www.w3.org/2000/svg"><path d="M22.5 10.286V8.143c0-.79-.672-1.429-1.5-1.429H4.5c-.827 0-1.5-.64-1.5-1.428 0-.788.673-1.429 1.5-1.429H21c.828 0 1.5-.64 1.5-1.428C22.5 1.639 21.828 1 21 1H4.5C2.019 1 0 2.922 0 5.286v12.857C0 19.72 1.343 21 3 21h18c.828 0 1.5-.64 1.5-1.429V17.43c.828 0 1.5-.64 1.5-1.429v-4.286c0-.789-.672-1.428-1.5-1.428zm-2.25 5c-.828 0-1.5-.64-1.5-1.429s.672-1.428 1.5-1.428 1.5.64 1.5 1.428c0 .79-.672 1.429-1.5 1.429z" fill="url(#paint0_linear)"/><defs><linearGradient id="paint0_linear" x1="37.125" y1="-8" x2="4.313" y2="21.826" gradientUnits="userSpaceOnUse"><stop stop-color="#FFB36D"/><stop offset="1" stop-color="#F88"/></linearGradient></defs></svg>
